!!!OTL: Und's Deandl is wunderschoe, i muass's aufrichti sagn, im ganz'n Land Tirol g'fallt koani mir so wohl
!!!ARE: Europa, Mitteleuropa, Deutschland, Bayern
!!!SCT: D0287
!!!YEM: Copyright 1995, estate of Helmut Schaffrath.
**kern
*ICvox
*Ivox
*M3/4
*k[b-e-a-]
*E-:
{8ee-
8ee-
8ee-
=1
8.b-
16b-
8g
16r
16g
8g
8g
=2
8.a-
16a-
8d}
{8dd
8.dd
16dd
=3
8.cc
16cc
8f
8d
8e-
8d
=4
8.b-
16b-
8g}
{8ee-
8ee-
8ee-
=5
8.b-
16b-
8g
16r
16g
8a-
8b-
=6
8cc
8ee-
8ee-}
{8ee-
8dd
8cc
=7
8cc
8b-
8dd
8cc
8b-
8a-
=8
4g
4r
4r}
=9
{12g
12b-
12ee-
12.b-
24a-
12g
8.ee-
16g
=10
12f
12a-
12dd
8cc
8f
4dd}
=11
{12f
12a-
12dd
8cc
8f
8dd
8a-
=12
4g
4b-
4ee-}
=13
{16e-
16e-
8e-
16g
16g
8g
16b-
16b-
8b-
=14
4gg
16.aa-
32gg
16ff
16ee-
16dd
8.ff
=15
2b-
4r}
=16
{12g
12b-
12ee-
12.b-
24a-
12g
8.ee-
16g
=17
12f
12a-
12dd
8cc
8f
4dd}
=18
{12f
12a-
12dd
8cc
8f
8dd
8a-
=19
4g
4b-
4ee-
=20
4gg
8r}
==
!!!AGN: Scherz- und Spott - Lied, Jodler
!! Zweistimmig notiert (Terzparallelen ); Inzipit = Variante zum Lied
!!!ONB: ESAC (Essen Associative Code) Database: DVA
!!!AMT: simple triple
!!!AIN: vox
!!!EED: Helmut Schaffrath
!!!EEV: 1.0
*-
